icons/rain-day.svg

<svg width="66" height="65" viewBox="0 0 66 65" fill="none" xmlns="http://www.w3.org/2000/svg">
<path d="M0 38.81C0 42.0502 1.12946 44.8276 3.41295 47.1664C5.69643 49.5052 8.47098 50.7234 11.7612 50.8939C12.0312 50.8939 12.1786 50.7478 12.1786 50.4798V47.2151C12.1786 46.9228 12.0312 46.7766 11.7612 46.7766C9.67411 46.6792 7.90625 45.8508 6.43304 44.2916C4.95982 42.7324 4.24777 40.9052 4.24777 38.81C4.24777 36.7635 4.93527 35.0094 6.31027 33.5232C7.68527 32.0371 9.40402 31.1844 11.4665 30.9408L12.6942 30.8433C13.0134 30.8433 13.1853 30.6972 13.1853 30.4048L13.3326 29.1136C13.6027 26.4824 14.7076 24.2654 16.6964 22.5112C18.6853 20.7328 21.0179 19.8557 23.7187 19.8557C26.3951 19.8557 28.7522 20.7328 30.7411 22.5112C32.7299 24.2897 33.8594 26.4824 34.1049 29.1136L34.2768 30.5023C34.2768 30.7946 34.4241 30.9408 34.7187 30.9408H38.8192C40.9799 30.9408 42.8214 31.7204 44.3929 33.2796C45.9643 34.8388 46.75 36.666 46.75 38.81C46.75 40.8808 46.0134 42.6837 44.5402 44.2185C43.067 45.7534 41.2991 46.6061 39.2366 46.7766C38.9665 46.7766 38.8192 46.9228 38.8192 47.2151V50.4798C38.8192 50.7478 38.9665 50.8939 39.2366 50.8939C41.3973 50.8452 43.3371 50.2605 45.1295 49.1398C46.9219 48.0191 48.3214 46.5817 49.3281 44.7545C50.3594 42.9273 50.8504 40.9539 50.8504 38.81C50.8504 37.0802 50.5067 35.4723 49.8438 34.0349C51.7098 31.7448 52.6183 29.0892 52.6183 26.0439C52.6183 24.3141 52.2746 22.6574 51.6116 21.0738C50.9487 19.4903 50.0156 18.1503 48.8616 17.0052C47.7321 15.8602 46.3571 14.9588 44.7857 14.301C43.1897 13.6188 41.5201 13.3021 39.7768 13.3021C36.0692 13.3021 32.9509 14.6421 30.4219 17.3463C28.4821 16.2987 26.2478 15.7871 23.7187 15.7871C20.2567 15.7871 17.1875 16.8591 14.5112 18.9786C11.8348 21.0982 10.1652 23.8268 9.42857 27.1402C6.67857 27.7736 4.39509 29.1623 2.62723 31.3306C0.883929 33.4989 0 36.0082 0 38.81ZM20.625 9.08733C20.625 9.6964 20.8214 10.208 21.2388 10.5978L22.8594 12.1814C23.6942 13.0097 24.6518 13.0097 25.7321 12.1814C26.125 11.7672 26.3214 11.2556 26.3214 10.6953C26.3214 10.1349 26.125 9.64768 25.7321 9.20915L24.1853 7.6012C23.7924 7.21139 23.3013 7.01649 22.7121 7.01649C22.1473 7.01649 21.6562 7.21139 21.2388 7.62556C20.8214 8.01537 20.625 8.50262 20.625 9.08733ZM33.8839 19.7582C35.5045 18.199 37.4688 17.4194 39.7768 17.4194C42.183 17.4194 44.2455 18.2721 45.9397 19.9532C47.6339 21.6342 48.4933 23.6807 48.4933 26.0682C48.4933 27.4325 48.1004 28.8699 47.3393 30.3561C44.9821 28.0172 42.1585 26.8722 38.8192 26.8722H37.9844C37.346 24.0948 35.971 21.7316 33.8839 19.7582ZM37.6652 7.01649C37.6652 7.62556 37.8616 8.11282 38.2545 8.50262C38.6473 8.89243 39.1384 9.08733 39.7522 9.08733C40.3661 9.08733 40.8571 8.89243 41.25 8.50262C41.6429 8.11282 41.8393 7.62556 41.8393 7.01649V2.0952C41.8393 1.48613 41.6429 0.974513 41.25 0.584708C40.8571 0.194903 40.3661 0 39.7522 0C39.1384 0 38.6473 0.194903 38.2545 0.584708C37.8616 0.974513 37.6652 1.48613 37.6652 2.0952V7.01649ZM51.2924 12.5956C51.2924 13.2046 51.4888 13.6919 51.8571 14.0817C52.3728 14.4959 52.8638 14.6908 53.3795 14.6908C53.846 14.6908 54.3125 14.4959 54.8281 14.0817L58.3393 10.5978C58.7321 10.1593 58.9286 9.64768 58.9286 9.06297C58.9286 8.47826 58.7321 7.991 58.3393 7.6012C57.9464 7.21139 57.4554 7.01649 56.8906 7.01649C56.3259 7.01649 55.8348 7.21139 55.3929 7.6012L51.8571 11.0851C51.4888 11.5236 51.2924 12.0109 51.2924 12.5956ZM53.2321 41.4168C53.2321 41.9771 53.4531 42.4888 53.8705 42.9516L55.3929 44.5109C55.9085 45.0225 56.3996 45.2661 56.9152 45.2661C57.3817 45.2661 57.8728 45.0225 58.3393 44.5109C58.7812 44.0723 59.0022 43.5607 58.9777 43.0247C58.9531 42.4644 58.7567 41.9771 58.3393 41.563L56.7433 39.955C56.3504 39.5652 55.8839 39.3703 55.3438 39.3703C54.7545 39.3703 54.2634 39.5652 53.846 39.9794C53.4531 40.3692 53.2321 40.8564 53.2321 41.4168ZM56.8415 26.0439C56.8415 26.5798 57.0379 27.0671 57.4308 27.4569C57.8237 27.8467 58.3147 28.0416 58.8549 28.0416H63.8638C64.5022 28.0416 65.0179 27.8467 65.4107 27.4813C65.8036 27.0915 66 26.6286 66 26.0439C66 25.4348 65.8036 24.9232 65.3862 24.5334C64.9688 24.1436 64.4777 23.9487 63.8638 23.9487H58.8549C58.2902 23.9487 57.7991 24.1436 57.4063 24.5577C57.0379 24.9719 56.8415 25.4835 56.8415 26.0439Z" fill="#0F172A"/>
<path d="M13.2835 55.1331C13.2835 55.5716 13.4063 56.0101 13.6763 56.4243C13.9464 56.8628 14.3147 57.1308 14.7812 57.3013C15.2478 57.4719 15.7634 57.4232 16.279 57.1552C16.8192 56.8872 17.1629 56.4487 17.3594 55.8152L21.2388 41.6361C21.4107 41.1244 21.3616 40.6372 21.067 40.1256C20.7969 39.6139 20.3795 39.2729 19.8147 39.1023C19.2254 38.9561 18.6607 39.0049 18.1696 39.2972C17.6786 39.5896 17.3839 40.0037 17.2612 40.5641L13.308 54.6214C13.308 54.7433 13.2835 54.9138 13.2835 55.1331Z" fill="#0F172A"/>
<path d="M19.4955 62.8561C19.4955 63.2459 19.6429 63.66 19.9129 64.0742C20.183 64.4884 20.6004 64.7807 21.1161 64.9513C21.1406 64.9513 21.2143 64.9513 21.3616 64.9756C21.5089 65 21.6317 65 21.7299 65C22.0737 65 22.3683 64.9513 22.6384 64.8295C23.1049 64.6346 23.4487 64.1717 23.6451 63.4164L27.5 49.3347C27.6719 48.7744 27.6228 48.2384 27.3527 47.7511C27.0826 47.2639 26.6652 46.9228 26.125 46.7522C25.5112 46.5817 24.9464 46.6548 24.4554 46.9471C23.9643 47.2395 23.6451 47.678 23.5469 48.2384L19.6183 62.3445C19.5201 62.5637 19.4955 62.7343 19.4955 62.8561Z" fill="#0F172A"/>
<path d="M29.6362 55.3767C29.6853 56.3025 30.2009 56.9603 31.183 57.3988L31.7969 57.4962C32.1897 57.4962 32.5826 57.3744 32.9509 57.1064C33.3192 56.8385 33.5893 56.4486 33.7366 55.8883L37.7879 41.8066C37.9598 41.2219 37.9107 40.7103 37.6161 40.223C37.346 39.7358 36.9286 39.419 36.3638 39.2729C35.7991 39.1023 35.2589 39.151 34.7924 39.419C34.3013 39.687 33.9821 40.1012 33.8348 40.6372L29.7344 54.8163C29.7098 54.8651 29.7098 54.9382 29.6853 55.0112C29.6607 55.0843 29.6607 55.1574 29.6362 55.2061C29.6116 55.2549 29.6362 55.328 29.6362 55.3767Z" fill="#0F172A"/>
</svg>

<?xml version="1.0" encoding="UTF-8"?><svg id="Layer_2" xmlns="http://www.w3.org/2000/svg" viewBox="0 0 66 65"><defs><style>.cls-1{fill:#fffefa;}</style></defs><g id="Layer_1-2"><g id="rain-day"><path class="cls-1" d="M53.38,14.69c.47,0,.93-.19,1.45-.61l3.51-3.48c.39-.44,.59-.95,.59-1.53s-.2-1.07-.59-1.46c-.39-.39-.88-.58-1.45-.58s-1.06,.19-1.5,.58l-3.54,3.48c-.37,.44-.56,.93-.56,1.51s.2,1.1,.56,1.49c.52,.41,1.01,.61,1.52,.61Z"/><path class="cls-1" d="M39.75,9.09c.61,0,1.1-.19,1.5-.58,.39-.39,.59-.88,.59-1.49V2.1c0-.61-.2-1.12-.59-1.51-.39-.39-.88-.58-1.5-.58s-1.1,.19-1.5,.58c-.39,.39-.59,.9-.59,1.51V7.02c0,.61,.2,1.1,.59,1.49,.39,.39,.88,.58,1.5,.58Z"/><path class="cls-1" d="M65.39,24.53c-.42-.39-.91-.58-1.52-.58h-5.01c-.56,0-1.06,.19-1.45,.61-.37,.41-.56,.93-.56,1.49s.2,1.02,.59,1.41c.39,.39,.88,.58,1.42,.58h5.01c.64,0,1.15-.19,1.55-.56,.39-.39,.59-.85,.59-1.44s-.2-1.12-.61-1.51Z"/><path class="cls-1" d="M22.86,12.18c.83,.83,1.79,.83,2.87,0,.39-.41,.59-.93,.59-1.49s-.2-1.05-.59-1.49l-1.55-1.61c-.39-.39-.88-.58-1.47-.58s-1.06,.19-1.47,.61c-.42,.39-.61,.88-.61,1.46s.2,1.12,.61,1.51l1.62,1.58Z"/><path class="cls-1" d="M56.74,39.96c-.39-.39-.86-.58-1.4-.58-.59,0-1.08,.19-1.5,.61-.39,.39-.61,.88-.61,1.44s.22,1.07,.64,1.53l1.52,1.56c.52,.51,1.01,.76,1.52,.76,.47,0,.96-.24,1.42-.76,.44-.44,.66-.95,.64-1.49-.02-.56-.22-1.05-.64-1.46l-1.6-1.61Z"/><path class="cls-1" d="M51.61,21.07c-.66-1.58-1.6-2.92-2.75-4.07-1.13-1.14-2.5-2.05-4.08-2.7-1.6-.68-3.27-1-5.01-1-3.71,0-6.83,1.34-9.35,4.04-1.94-1.05-4.17-1.56-6.7-1.56-3.46,0-6.53,1.07-9.21,3.19-2.68,2.12-4.35,4.85-5.08,8.16-2.75,.63-5.03,2.02-6.8,4.19-1.74,2.17-2.63,4.68-2.63,7.48,0,3.24,1.13,6.02,3.41,8.36,2.28,2.34,5.06,3.56,8.35,3.73,.27,0,.42-.15,.42-.41v-3.26c0-.29-.15-.44-.42-.44-2.09-.1-3.85-.93-5.33-2.48s-2.19-3.39-2.19-5.48,.69-3.8,2.06-5.29c1.38-1.49,3.09-2.34,5.16-2.58l1.23-.1c.32,0,.49-.15,.49-.44l.15-1.29c.27-2.63,1.38-4.85,3.36-6.6,1.99-1.78,4.32-2.66,7.02-2.66s5.03,.88,7.02,2.66c1.99,1.78,3.12,3.97,3.36,6.6l.17,1.39c0,.29,.15,.44,.44,.44h4.1c2.16,0,4,.78,5.57,2.34,1.57,1.56,2.36,3.39,2.36,5.53s-.74,3.87-2.21,5.41c-1.47,1.53-3.24,2.39-5.3,2.56-.27,0-.42,.15-.42,.44v3.26c0,.27,.15,.41,.42,.41,2.16-.05,4.1-.63,5.89-1.75,1.79-1.12,3.19-2.56,4.2-4.39,1.03-1.83,1.52-3.8,1.52-5.94,0-1.73-.34-3.34-1.01-4.78,1.87-2.29,2.77-4.95,2.77-7.99,0-1.73-.34-3.39-1.01-4.97Zm-4.27,9.28c-2.36-2.34-5.18-3.48-8.52-3.48h-.83c-.64-2.78-2.01-5.14-4.1-7.11,1.62-1.56,3.58-2.34,5.89-2.34s4.47,.85,6.16,2.53c1.69,1.68,2.55,3.73,2.55,6.11,0,1.36-.39,2.8-1.15,4.29Z"/><path class="cls-1" d="M21.07,40.13c-.27-.51-.69-.85-1.25-1.02-.59-.15-1.15-.1-1.65,.19-.49,.29-.79,.71-.91,1.27l-3.95,14.06c0,.12-.02,.29-.02,.51,0,.44,.12,.88,.39,1.29,.27,.44,.64,.71,1.1,.88,.47,.17,.98,.12,1.5-.15,.54-.27,.88-.71,1.08-1.34l3.88-14.18c.17-.51,.12-1-.17-1.51Z"/><path class="cls-1" d="M26.12,46.75c-.61-.17-1.18-.1-1.67,.19-.49,.29-.81,.73-.91,1.29l-3.93,14.11c-.1,.22-.12,.39-.12,.51,0,.39,.15,.8,.42,1.22,.27,.41,.69,.71,1.2,.88,.02,0,.1,0,.25,.02,.15,.02,.27,.02,.37,.02,.34,0,.64-.05,.91-.17,.47-.19,.81-.66,1.01-1.41l3.85-14.08c.17-.56,.12-1.1-.15-1.58-.27-.49-.69-.83-1.23-1Z"/><path class="cls-1" d="M36.36,39.27c-.56-.17-1.1-.12-1.57,.15-.49,.27-.81,.68-.96,1.22l-4.1,14.18s-.02,.12-.05,.19c-.02,.07-.02,.15-.05,.19-.02,.05,0,.12,0,.17,.05,.93,.56,1.58,1.55,2.02l.61,.1c.39,0,.79-.12,1.15-.39,.37-.27,.64-.66,.79-1.22l4.05-14.08c.17-.58,.12-1.1-.17-1.58-.27-.49-.69-.8-1.25-.95Z"/></g></g></svg>
